X:1
T: Miss Betty Kerr's Reel
C:R. Mackintosh
R:Jig
Q: 180
K:Bb
M:6/8
L:1/8
b3 f2d|g^fg edc|f3 dcB|AcB AGF|b3 f2d|g^fg edc|dfd cec|dBB B3|
b3 f2d|g^fg edc|f3 dcB|AcB AGF|b3 f2d|g^fg edc|dfd cec|dBB B3|
D2B BAB|E2B BAB|F2B BAB|G2B BAB|D2B BAB|EGc cde|dcB cBA|B3 B,3|
DFB BAB|EGB BEB|FAB BAB|GAB BAB|D2B E2B|F2B G2g|fdB cAF|G3 G3||
